X: 05009
T: AUNT JENNY'S JIG
C: Bob McQuillen 12 Jan 81
B: Bob's Note Book 5 #9
%R: jig
Z: 2021 John Chambers <jc:trillian.mit.edu>
M: 6/8
L: 1/8
K: G
d \
| BGD CDE | DB,D BAB | cBc AGA | B2G D2d |\
| BGD CDE | DB,D BAB | ded efg | afe def |
| gdB dBG | ABc def | gfg edc | BAG AFD |\
| B,DG AFD | GBd ecA | dBG cAF | AGG G2 |]
|: B \
| AFD DAB | cBc AFD | ABc ded | cde def |\
| fef afe | def gdB | ABc def | gGG G2 :|
%%begintext align
%% Jenny La Freniere of Marlboro, N.H.,
%% is the sister of Johnny Trombley, who was probably the best
%% square & contra dance piano player in New England. I am so
%% glad to dedicate this tune to you, Jenny - with much
%% love always --
%%endtext

%%sep 1 1 500

%%sep 1 1 500

